X: 17
T:Jockey To The Fair
M:6/8
L:1/8
R:Jig
N:http://www.lesession.co.uk
Z:Steve Mansfield 1998-2001
K:G
D | G2 A B2 c | d2 g d2 c | BdB GAB | c2 B A2 d | 
d^cd efg | a2 f d2 g | fed AB^c | d3 d2 :: d | 
g2 d g2 d | cBc B2 d | g2 d g2 d | cBc B2 d | 
e2 f gfe | d2 c Bcd | e2 c A2 F | G3 G2 :|
<end>
<start>
